X:1105
M:3/8
L:1/16
Q:3/8=80
K:G
dc|B2d2g2|dBG2 FG| AF  D2``D2 | D4
fe|d2f2g2|agfedc   | B2``G2``G2 | G3B
dB|AFD2D2|D4     FG| AB``cd``ef |Hg4
fe|d2f2g2|agfedc   | B2``G2``G2 | G4|]

